storage/app/icons/tabler/filled/plane.svg

<!--
version: "3.37"
unicode: "101b9"
-->
<svg
  xmlns="http://www.w3.org/2000/svg"
  width="24"
  height="24"
  viewBox="0 0 24 24"
  fill="currentColor"
>
  <path d="M12.868 2.504l3.712 6.496h3.42a3 3 0 0 1 0 6h-3.42l-3.712 6.496a1 1 0 0 1 -.868 .504h-3a1 1 0 0 1 -.962 -1.275l1.636 -5.725h-2.26l-1.707 1.707a1 1 0 0 1 -.707 .293h-3a1 1 0 0 1 -.894 -1.447l1.776 -3.553l-1.776 -3.553a1 1 0 0 1 .894 -1.447h3a1 1 0 0 1 .707 .293l1.707 1.707h2.26l-1.636 -5.725a1 1 0 0 1 .962 -1.275h3a1 1 0 0 1 .868 .504" />
</svg>

<svg xmlns="http://www.w3.org/2000/svg" width="24" height="24" fill="currentColor" viewBox="0 0 24 24"><path d="M12.868 2.504 16.58 9H20a3 3 0 0 1 0 6h-3.42l-3.712 6.496A1 1 0 0 1 12 22H9a1 1 0 0 1-.962-1.275L9.674 15h-2.26l-1.707 1.707A1 1 0 0 1 5 17H2a1 1 0 0 1-.894-1.447L2.882 12 1.106 8.447A1 1 0 0 1 2 7h3a1 1 0 0 1 .707.293L7.414 9h2.26L8.038 3.275A1 1 0 0 1 9 2h3a1 1 0 0 1 .868.504"/></svg>
